common/src/main/resources/icons/plugins/markdown/List_indent.svg

<svg xmlns="http://www.w3.org/2000/svg" width="16" height="16" fill="#9E9E9E" data-big="true" viewBox="0 0 24 24"><path d="M11 13h10v-2H11m0-2h10V7H11M3 3v2h18V3M11 17h10v-2H11M3 8v8l4-4m-4 9h18v-2H3z"/></svg>

<!--
  - The MIT License (MIT)
  -
  - Copyright (c) 2015-2024 Elior "Mallowigi" Boukhobza
  -
  - Permission is hereby granted, free of charge, to any person obtaining a copy
  - of this software and associated documentation files (the "Software"), to deal
  - in the Software without restriction, including without limitation the rights
  - to use, copy, modify, merge, publish, distribute, sublicense, and/or sell
  - copies of the Software, and to permit persons to whom the Software is
  - furnished to do so, subject to the following conditions:
  -
  - The above copyright notice and this permission notice shall be included in all
  - copies or substantial portions of the Software.
  -
  - THE SOFTWARE IS PROVIDED "AS IS", WITHOUT WARRANTY OF ANY KIND, EXPRESS OR
  - IMPLIED, INCLUDING BUT NOT LIMITED TO THE WARRANTIES OF MERCHANTABILITY,
  - FITNESS FOR A PARTICULAR PURPOSE AND NONINFRINGEMENT. IN NO EVENT SHALL THE
  - AUTHORS OR COPYRIGHT HOLDERS BE LIABLE FOR ANY CLAIM, DAMAGES OR OTHER
  - LIABILITY, WHETHER IN AN ACTION OF CONTRACT, TORT OR OTHERWISE, ARISING FROM,
  - OUT OF OR IN CONNECTION WITH THE SOFTWARE OR THE USE OR OTHER DEALINGS IN THE
  - SOFTWARE.
  -->


<svg data-big="true" xmlns="http://www.w3.org/2000/svg" fill="#9E9E9E" version="1.1" width="16px" height="16px"
     viewBox="0 0 24 24">
  <path d="M11,13H21V11H11M11,9H21V7H11M3,3V5H21V3M11,17H21V15H11M3,8V16L7,12M3,21H21V19H3V21Z"/>
</svg>
